X:2602
T:Capt. Hillman's March
M:C
K:D
A/B/c|\
d2d>d d2f>d| e2e>e e2g>e| f2f>f f>ag>f| "tr"e>dc>B A>GFE|\
d>AF>A d>fe>d| ecAc eg"tr"fe| fadf egde| d2d>d d2::\
(d/e/f/g/)|\
a>gf>g aa b/a/g/f/| g>fe>f gg a/g/f/e/| f>ed>e f>agf| edcB AGFE|\
DFAd fdAF| EGBe gfdA| a>ff>d g>ee>c| "tr"d2 d>dd2:|


